monitor-account.svg

<svg fill="currentColor" viewBox="0 0 24 24"><path d="M21 2c1.05 0 1.92.81 2 1.85V16c0 1.05-.82 1.92-1.85 2H14v2h2v2H8v-2h2v-2H3c-1.05 0-1.92-.82-2-1.85V4a2 2 0 0 1 1.85-2H21m0 2H3v12h18zm-9 7c2.21 0 4 .9 4 2v1H8v-1c0-1.1 1.79-2 4-2m0-5a2 2 0 1 1 0 4c-1.11 0-2-.89-2-2s.9-2 2-2"/></svg>

<svg  viewBox="0 0 24 24" fill="currentColor"><path  d="M21 2C22.05 2 22.92 2.81 23 3.85L23 4V16C23 17.05 22.18 17.92 21.15 18L21 18H14V20H16V22H8V20H10V18H3C1.95 18 1.08 17.18 1 16.15L1 16V4C1 2.94 1.81 2.08 2.85 2L3 2H21M21 4H3V16H21V4M12 11C14.21 11 16 11.9 16 13V14H8V13C8 11.9 9.79 11 12 11M12 6C13.11 6 14 6.9 14 8S13.11 10 12 10 10 9.11 10 8 10.9 6 12 6Z"/></svg>
